16x16/apps/kbreakout.svg

<svg height="16" width="16" xmlns="http://www.w3.org/2000/svg"><path d="m16 15.2v-14.4c0-.443-.357-.8-.8-.8h-14.4c-.443 0-.8.357-.8.8v14.4c0 .443.357.8.8.8h14.4c.443 0 .8-.357.8-.8z" fill="#667e47"/><path d="m4 13h7v2h-7z" fill="#17191e"/><circle cx="9.5" cy="10.5" fill="#f4f4f7" r="1.5"/><path d="m7 2h2v2h-2zm3 0h2v2h-2zm3 0h2v2h-2zm-6 3h2v2h-2zm3 0h2v2h-2zm-9 0h2v2h-2z" fill="#fcd800"/></svg>

<svg height="16" width="16" xmlns="http://www.w3.org/2000/svg">
    <path d="M16 15.2V.8c0-.443-.357-.8-.8-.8H.8C.357 0 0 .357 0 .8v14.4c0 .443.357.8.8.8h14.4c.443 0 .8-.357.8-.8z" fill="#667e47"/>
    <path d="M4 13h7v2H4z" fill="#17191e"/>
    <circle cx="9.5" cy="10.5" fill="#f4f4f7" r="1.5"/>
    <path d="M7 2h2v2H7zm3 0h2v2h-2zm3 0h2v2h-2zM7 5h2v2H7zm3 0h2v2h-2zM1 5h2v2H1z" fill="#fcd800"/>
</svg>
